assets/1. Faces/Face with spiral eyes/Color/face_with_spiral_eyes_color.svg

<svg width="100%" height="100%" viewBox="0 0 32 32" fill="none" xmlns="http://www.w3.org/2000/svg">
<g filter="url(#filter0_i_7320_6152)">
<path d="M16.0073 29.9978C25.3418 29.9978 30.0062 23.7303 30.0062 15.9989C30.0062 8.26751 25.3418 2 16.0073 2C6.67286 2 2.00842 8.26751 2.00842 15.9989C2.00842 23.7303 6.67286 29.9978 16.0073 29.9978Z" fill="url(#paint0_radial_7320_6152)"/>
</g>
<path d="M16.0073 29.9978C6.67289 29.9978 2.00846 23.7303 2.00846 15.9989C2.00846 8.26751 6.67289 2 16.0073 2C25.3418 2 30.0062 8.26751 30.0062 15.9989C30.0062 23.7303 25.3418 29.9978 16.0073 29.9978Z" fill="url(#paint1_radial_7320_6152)"/>
<g filter="url(#filter1_f_7320_6152)">
<path d="M26.2908 13.9762C25.8808 11.3762 23.4509 9.10621 20.5609 9.73621C18.2509 10.2362 16.7809 12.5162 17.2809 14.8262C17.6809 16.6762 19.5009 17.8462 21.3509 17.4462C22.8309 17.1262 23.7709 15.6662 23.4509 14.1862C23.1909 13.0062 22.2208 12.3562 21.0408 12.6062C20.0908 12.8062 19.7309 14.4562 20.6609 14.7362" stroke="#B87506" stroke-width="1.5" stroke-miterlimit="10" stroke-linecap="round" stroke-linejoin="round"/>
</g>
<g filter="url(#filter2_f_7320_6152)">
<path d="M4.29094 13.9762C4.70094 11.3762 7.13094 9.10621 10.0209 9.73621C12.3309 10.2362 13.8009 12.5162 13.3009 14.8262C12.9009 16.6762 11.0809 17.8462 9.23094 17.4462C7.75094 17.1262 6.81094 15.6662 7.13094 14.1862C7.39094 13.0062 8.36094 12.3562 9.54094 12.6062C10.4909 12.8062 10.8509 14.4562 9.92094 14.7362" stroke="#B56318" stroke-width="1.5" stroke-miterlimit="10" stroke-linecap="round" stroke-linejoin="round"/>
</g>
<path d="M26.9783 13.32C26.5683 10.72 24.1384 8.44996 21.2484 9.07996C18.9384 9.57996 17.4684 11.86 17.9684 14.17C18.3684 16.02 20.1884 17.19 22.0384 16.79C23.5184 16.47 24.4584 15.01 24.1384 13.53C23.8784 12.35 22.9083 11.7 21.7283 11.95C20.7783 12.15 20.4184 13.8 21.3484 14.08" stroke="url(#paint2_radial_7320_6152)" stroke-width="2" stroke-miterlimit="10" stroke-linecap="round" stroke-linejoin="round"/>
<path d="M26.9783 13.32C26.5683 10.72 24.1384 8.44996 21.2484 9.07996C18.9384 9.57996 17.4684 11.86 17.9684 14.17C18.3684 16.02 20.1884 17.19 22.0384 16.79C23.5184 16.47 24.4584 15.01 24.1384 13.53C23.8784 12.35 22.9083 11.7 21.7283 11.95C20.7783 12.15 20.4184 13.8 21.3484 14.08" stroke="url(#paint3_linear_7320_6152)" stroke-width="2" stroke-miterlimit="10" stroke-linecap="round" stroke-linejoin="round"/>
<path d="M26.9783 13.32C26.5683 10.72 24.1384 8.44996 21.2484 9.07996C18.9384 9.57996 17.4684 11.86 17.9684 14.17C18.3684 16.02 20.1884 17.19 22.0384 16.79C23.5184 16.47 24.4584 15.01 24.1384 13.53C23.8784 12.35 22.9083 11.7 21.7283 11.95C20.7783 12.15 20.4184 13.8 21.3484 14.08" stroke="url(#paint4_linear_7320_6152)" stroke-width="2" stroke-miterlimit="10" stroke-linecap="round" stroke-linejoin="round"/>
<path d="M4.97844 13.32C5.38844 10.72 7.81844 8.44996 10.7084 9.07996C13.0184 9.57996 14.4884 11.86 13.9884 14.17C13.5884 16.02 11.7684 17.19 9.91844 16.79C8.43844 16.47 7.49844 15.01 7.81844 13.53C8.07844 12.35 9.04844 11.7 10.2284 11.95C11.1784 12.15 11.5384 13.8 10.6084 14.08" stroke="url(#paint5_radial_7320_6152)" stroke-width="2" stroke-miterlimit="10" stroke-linecap="round" stroke-linejoin="round"/>
<path d="M4.97844 13.32C5.38844 10.72 7.81844 8.44996 10.7084 9.07996C13.0184 9.57996 14.4884 11.86 13.9884 14.17C13.5884 16.02 11.7684 17.19 9.91844 16.79C8.43844 16.47 7.49844 15.01 7.81844 13.53C8.07844 12.35 9.04844 11.7 10.2284 11.95C11.1784 12.15 11.5384 13.8 10.6084 14.08" stroke="url(#paint6_linear_7320_6152)" stroke-width="2" stroke-miterlimit="10" stroke-linecap="round" stroke-linejoin="round"/>
<path d="M4.97844 13.32C5.38844 10.72 7.81844 8.44996 10.7084 9.07996C13.0184 9.57996 14.4884 11.86 13.9884 14.17C13.5884 16.02 11.7684 17.19 9.91844 16.79C8.43844 16.47 7.49844 15.01 7.81844 13.53C8.07844 12.35 9.04844 11.7 10.2284 11.95C11.1784 12.15 11.5384 13.8 10.6084 14.08" stroke="url(#paint7_linear_7320_6152)" stroke-width="2" stroke-miterlimit="10" stroke-linecap="round" stroke-linejoin="round"/>
<g filter="url(#filter3_f_7320_6152)">
<path d="M26.9783 13.32C26.5683 10.72 24.1384 8.44996 21.2484 9.07996C18.9384 9.57996 17.4684 11.86 17.9684 14.17C18.3684 16.02 20.1884 17.19 22.0384 16.79C23.5184 16.47 24.4584 15.01 24.1384 13.53C23.8784 12.35 22.9083 11.7 21.7283 11.95C20.7783 12.15 20.4184 13.8 21.3484 14.08" stroke="#694C5E" stroke-width="0.4" stroke-linecap="round" stroke-linejoin="round"/>
</g>
<g filter="url(#filter4_f_7320_6152)">
<path d="M4.97844 13.32C5.38844 10.72 7.81844 8.44996 10.7084 9.07996C13.0184 9.57996 14.4884 11.86 13.9884 14.17C13.5884 16.02 11.7684 17.19 9.91844 16.79C8.43844 16.47 7.49844 15.01 7.81844 13.53C8.07844 12.35 9.04844 11.7 10.2284 11.95C11.1784 12.15 11.5384 13.8 10.6084 14.08" stroke="#694C5E" stroke-width="0.4" stroke-linecap="round" stroke-linejoin="round"/>
</g>
<g filter="url(#filter5_f_7320_6152)">
<path d="M12.8728 23.0877L15.2652 25.0897M17.984 22.7614L20.3764 24.7633" stroke="#CD6256" stroke-width="1.5" stroke-linecap="round" stroke-linejoin="round"/>
</g>
<path d="M7.85364 22.4502L10.2499 24.4554" stroke="url(#paint8_linear_7320_6152)" stroke-width="2" stroke-linecap="round" stroke-linejoin="round"/>
<path d="M10.25 24.4553L13.0183 22.1261" stroke="url(#paint9_linear_7320_6152)" stroke-width="2" stroke-linecap="round" stroke-linejoin="round"/>
<path d="M13.1306 22.0514L16.0011 24.4559" stroke="url(#paint10_linear_7320_6152)" stroke-width="2" stroke-linecap="round" stroke-linejoin="round"/>
<path d="M18.8705 22.0514L16 24.4559" stroke="url(#paint11_linear_7320_6152)" stroke-width="2" stroke-linecap="round" stroke-linejoin="round"/>
<path d="M18.8705 22.0514L21.741 24.4559" stroke="url(#paint12_linear_7320_6152)" stroke-width="2" stroke-linecap="round" stroke-linejoin="round"/>
<path d="M24.161 22.4269L21.7509 24.4554" stroke="url(#paint13_linear_7320_6152)" stroke-width="2" stroke-linecap="round" stroke-linejoin="round"/>
<path d="M7.85364 22.4501L10.2499 24.4553L13.1255 22.0491L16.0011 24.4553L18.8766 22.0491L21.7522 24.4553L24.1485 22.4501" stroke="url(#paint14_linear_7320_6152)" stroke-width="2" stroke-linecap="round" stroke-linejoin="round"/>
<g filter="url(#filter6_f_7320_6152)">
<path d="M7.85364 22.4501L10.2499 24.4553L13.1255 22.0491L16.0011 24.4553L18.8766 22.0491L21.7522 24.4553L24.1485 22.4501" stroke="#694C5E" stroke-width="0.5" stroke-linecap="round" stroke-linejoin="round"/>
</g>
<defs>
<filter id="filter0_i_7320_6152" x="2.00842" y="0" width="29.9978" height="29.9978" filterUnits="userSpaceOnUse" color-interpolation-filters="sRGB">
<feFlood flood-opacity="0" result="BackgroundImageFix"/>
<feBlend mode="normal" in="SourceGraphic" in2="BackgroundImageFix" result="shape"/>
<feColorMatrix in="SourceAlpha" type="matrix" values="0 0 0 0 0 0 0 0 0 0 0 0 0 0 0 0 0 0 127 0" result="hardAlpha"/>
<feOffset dx="2" dy="-2"/>
<feGaussianBlur stdDeviation="2"/>
<feComposite in2="hardAlpha" operator="arithmetic" k2="-1" k3="1"/>
<feColorMatrix type="matrix" values="0 0 0 0 0 0 0 0 0 0 0 0 0 0 0 0 0 0 0.08 0"/>
<feBlend mode="normal" in2="shape" result="effect1_innerShadow_7320_6152"/>
</filter>
<filter id="filter1_f_7320_6152" x="15.4331" y="7.87793" width="12.6079" height="11.3969" filterUnits="userSpaceOnUse" color-interpolation-filters="sRGB">
<feFlood flood-opacity="0" result="BackgroundImageFix"/>
<feBlend mode="normal" in="SourceGraphic" in2="BackgroundImageFix" result="shape"/>
<feGaussianBlur stdDeviation="0.5" result="effect1_foregroundBlur_7320_6152"/>
</filter>
<filter id="filter2_f_7320_6152" x="2.54077" y="7.87793" width="12.6079" height="11.3969" filterUnits="userSpaceOnUse" color-interpolation-filters="sRGB">
<feFlood flood-opacity="0" result="BackgroundImageFix"/>
<feBlend mode="normal" in="SourceGraphic" in2="BackgroundImageFix" result="shape"/>
<feGaussianBlur stdDeviation="0.5" result="effect1_foregroundBlur_7320_6152"/>
</filter>
<filter id="filter3_f_7320_6152" x="17.0707" y="8.17319" width="10.7077" height="9.49517" filterUnits="userSpaceOnUse" color-interpolation-filters="sRGB">
<feFlood flood-opacity="0" result="BackgroundImageFix"/>
<feBlend mode="normal" in="SourceGraphic" in2="BackgroundImageFix" result="shape"/>
<feGaussianBlur stdDeviation="0.3" result="effect1_foregroundBlur_7320_6152"/>
</filter>
<filter id="filter4_f_7320_6152" x="4.17844" y="8.17319" width="10.7077" height="9.49517" filterUnits="userSpaceOnUse" color-interpolation-filters="sRGB">
<feFlood flood-opacity="0" result="BackgroundImageFix"/>
<feBlend mode="normal" in="SourceGraphic" in2="BackgroundImageFix" result="shape"/>
<feGaussianBlur stdDeviation="0.3" result="effect1_foregroundBlur_7320_6152"/>
</filter>
<filter id="filter5_f_7320_6152" x="10.6228" y="20.5114" width="12.0035" height="6.82837" filterUnits="userSpaceOnUse" color-interpolation-filters="sRGB">
<feFlood flood-opacity="0" result="BackgroundImageFix"/>
<feBlend mode="normal" in="SourceGraphic" in2="BackgroundImageFix" result="shape"/>
<feGaussianBlur stdDeviation="0.75" result="effect1_foregroundBlur_7320_6152"/>
</filter>
<filter id="filter6_f_7320_6152" x="6.85364" y="21.0491" width="18.2948" height="4.40625" filterUnits="userSpaceOnUse" color-interpolation-filters="sRGB">
<feFlood flood-opacity="0" result="BackgroundImageFix"/>
<feBlend mode="normal" in="SourceGraphic" in2="BackgroundImageFix" result="shape"/>
<feGaussianBlur stdDeviation="0.375" result="effect1_foregroundBlur_7320_6152"/>
</filter>
<radialGradient id="paint0_radial_7320_6152" cx="0" cy="0" r="1" gradientUnits="userSpaceOnUse" gradientTransform="translate(25.5084 9) rotate(132.839) scale(37.5033)">
<stop stop-color="#FFF478"/>
<stop offset="0.474827" stop-color="#FFB02E"/>
<stop offset="1" stop-color="#F70A8D"/>
</radialGradient>
<radialGradient id="paint1_radial_7320_6152" cx="0" cy="0" r="1" gradientUnits="userSpaceOnUse" gradientTransform="translate(16.0062 12.5) rotate(90) scale(17.8854)">
<stop offset="0.823911" stop-color="#F59639" stop-opacity="0"/>
<stop offset="1" stop-color="#FF63C4"/>
</radialGradient>
<radialGradient id="paint2_radial_7320_6152" cx="0" cy="0" r="1" gradientUnits="userSpaceOnUse" gradientTransform="translate(22.0215 13.971) rotate(-119.993) scale(5.37618 7.49908)">
<stop offset="0.0197505" stop-color="#482641"/>
<stop offset="1" stop-color="#483637"/>
</radialGradient>
<linearGradient id="paint3_linear_7320_6152" x1="25.3027" y1="18.8147" x2="25.3027" y2="15.6272" gradientUnits="userSpaceOnUse">
<stop stop-color="#633563"/>
<stop offset="0.573487" stop-color="#633563" stop-opacity="0"/>
</linearGradient>
<linearGradient id="paint4_linear_7320_6152" x1="27.9277" y1="8.25223" x2="23.8027" y2="14.1272" gradientUnits="userSpaceOnUse">
<stop stop-color="#5A4B4E"/>
<stop offset="1" stop-color="#5A4B4E" stop-opacity="0"/>
</linearGradient>
<radialGradient id="paint5_radial_7320_6152" cx="0" cy="0" r="1" gradientUnits="userSpaceOnUse" gradientTransform="translate(9.9353 13.971) rotate(-60.0073) scale(5.37618 7.49908)">
<stop offset="0.0197505" stop-color="#482641"/>
<stop offset="1" stop-color="#483637"/>
</radialGradient>
<linearGradient id="paint6_linear_7320_6152" x1="6.65405" y1="18.8147" x2="6.65405" y2="15.6272" gradientUnits="userSpaceOnUse">
<stop stop-color="#633563"/>
<stop offset="0.573487" stop-color="#633563" stop-opacity="0"/>
</linearGradient>
<linearGradient id="paint7_linear_7320_6152" x1="4.02905" y1="8.25223" x2="8.15405" y2="14.1272" gradientUnits="userSpaceOnUse">
<stop stop-color="#5A4B4E"/>
<stop offset="1" stop-color="#5A4B4E" stop-opacity="0"/>
</linearGradient>
<linearGradient id="paint8_linear_7320_6152" x1="7.43183" y1="23.818" x2="11.2437" y2="19.2627" gradientUnits="userSpaceOnUse">
<stop stop-color="#482641"/>
<stop offset="0.322917" stop-color="#57434E"/>
<stop offset="0.4375" stop-color="#483637"/>
</linearGradient>
<linearGradient id="paint9_linear_7320_6152" x1="11.7452" y1="24.6952" x2="8.81992" y2="21.1259" gradientUnits="userSpaceOnUse">
<stop offset="0.0197505" stop-color="#482641"/>
<stop offset="0.322917" stop-color="#57434E"/>
<stop offset="0.46422" stop-color="#483637"/>
</linearGradient>
<linearGradient id="paint10_linear_7320_6152" x1="12.9309" y1="23.3906" x2="15.9396" y2="19.869" gradientUnits="userSpaceOnUse">
<stop offset="0.0197505" stop-color="#482641"/>
<stop offset="0.322917" stop-color="#57434E"/>
<stop offset="0.46422" stop-color="#483637"/>
</linearGradient>
<linearGradient id="paint11_linear_7320_6152" x1="19.0702" y1="23.3906" x2="16.0615" y2="19.869" gradientUnits="userSpaceOnUse">
<stop offset="0.0197505" stop-color="#482641"/>
<stop offset="0.322917" stop-color="#57434E"/>
<stop offset="0.46422" stop-color="#483637"/>
</linearGradient>
<linearGradient id="paint12_linear_7320_6152" x1="18.6707" y1="23.3906" x2="21.6795" y2="19.869" gradientUnits="userSpaceOnUse">
<stop offset="0.0197505" stop-color="#482641"/>
<stop offset="0.322917" stop-color="#57434E"/>
<stop offset="0.46422" stop-color="#483637"/>
</linearGradient>
<linearGradient id="paint13_linear_7320_6152" x1="24.8211" y1="23.3901" x2="21.8124" y2="19.8685" gradientUnits="userSpaceOnUse">
<stop offset="0.0197505" stop-color="#482641"/>
<stop offset="0.322917" stop-color="#57434E"/>
<stop offset="0.46422" stop-color="#483637"/>
</linearGradient>
<linearGradient id="paint14_linear_7320_6152" x1="16.0011" y1="25.56" x2="16.0011" y2="24.0059" gradientUnits="userSpaceOnUse">
<stop stop-color="#53265E"/>
<stop offset="1" stop-color="#53265E" stop-opacity="0"/>
</linearGradient>
</defs>
</svg>

<svg width="100%" height="100%" viewBox="0 0 32 32" xmlns="http://www.w3.org/2000/svg"><g filter="url(#a)"><path fill="url(#b)" d="M16.007 29.998c9.335 0 14-6.268 14-14 0-7.73-4.665-13.998-14-13.998C6.673 2 2.008 8.268 2.008 15.999s4.665 13.999 14 13.999"/></g><path fill="url(#c)" d="M16.007 29.998c-9.334 0-13.999-6.268-13.999-14C2.008 8.269 6.673 2 16.008 2c9.334 0 13.998 6.268 13.998 13.999s-4.664 13.999-13.999 13.999"/><g filter="url(#d)"><path stroke="#B87506" stroke-linecap="round" stroke-linejoin="round" stroke-miterlimit="10" stroke-width="1.5" d="M26.29 13.976c-.41-2.6-2.84-4.87-5.73-4.24-2.31.5-3.78 2.78-3.28 5.09a3.42 3.42 0 0 0 4.07 2.62 2.74 2.74 0 0 0 2.1-3.26c-.26-1.18-1.23-1.83-2.41-1.58-.95.2-1.31 1.85-.38 2.13"/></g><g filter="url(#e)"><path stroke="#B56318" stroke-linecap="round" stroke-linejoin="round" stroke-miterlimit="10" stroke-width="1.5" d="M4.29 13.976c.41-2.6 2.84-4.87 5.73-4.24 2.31.5 3.78 2.78 3.28 5.09a3.42 3.42 0 0 1-4.07 2.62 2.74 2.74 0 0 1-2.1-3.26c.26-1.18 1.23-1.83 2.41-1.58.95.2 1.31 1.85.38 2.13"/></g><path stroke="url(#f)" stroke-linecap="round" stroke-linejoin="round" stroke-miterlimit="10" stroke-width="2" d="M26.978 13.32c-.41-2.6-2.84-4.87-5.73-4.24-2.31.5-3.78 2.78-3.28 5.09a3.42 3.42 0 0 0 4.07 2.62 2.74 2.74 0 0 0 2.1-3.26c-.26-1.18-1.23-1.83-2.41-1.58-.95.2-1.31 1.85-.38 2.13"/><path stroke="url(#g)" stroke-linecap="round" stroke-linejoin="round" stroke-miterlimit="10" stroke-width="2" d="M26.978 13.32c-.41-2.6-2.84-4.87-5.73-4.24-2.31.5-3.78 2.78-3.28 5.09a3.42 3.42 0 0 0 4.07 2.62 2.74 2.74 0 0 0 2.1-3.26c-.26-1.18-1.23-1.83-2.41-1.58-.95.2-1.31 1.85-.38 2.13"/><path stroke="url(#h)" stroke-linecap="round" stroke-linejoin="round" stroke-miterlimit="10" stroke-width="2" d="M26.978 13.32c-.41-2.6-2.84-4.87-5.73-4.24-2.31.5-3.78 2.78-3.28 5.09a3.42 3.42 0 0 0 4.07 2.62 2.74 2.74 0 0 0 2.1-3.26c-.26-1.18-1.23-1.83-2.41-1.58-.95.2-1.31 1.85-.38 2.13"/><path stroke="url(#i)" stroke-linecap="round" stroke-linejoin="round" stroke-miterlimit="10" stroke-width="2" d="M4.978 13.32c.41-2.6 2.84-4.87 5.73-4.24 2.31.5 3.78 2.78 3.28 5.09a3.42 3.42 0 0 1-4.07 2.62 2.74 2.74 0 0 1-2.1-3.26c.26-1.18 1.23-1.83 2.41-1.58.95.2 1.31 1.85.38 2.13"/><path stroke="url(#j)" stroke-linecap="round" stroke-linejoin="round" stroke-miterlimit="10" stroke-width="2" d="M4.978 13.32c.41-2.6 2.84-4.87 5.73-4.24 2.31.5 3.78 2.78 3.28 5.09a3.42 3.42 0 0 1-4.07 2.62 2.74 2.74 0 0 1-2.1-3.26c.26-1.18 1.23-1.83 2.41-1.58.95.2 1.31 1.85.38 2.13"/><path stroke="url(#k)" stroke-linecap="round" stroke-linejoin="round" stroke-miterlimit="10" stroke-width="2" d="M4.978 13.32c.41-2.6 2.84-4.87 5.73-4.24 2.31.5 3.78 2.78 3.28 5.09a3.42 3.42 0 0 1-4.07 2.62 2.74 2.74 0 0 1-2.1-3.26c.26-1.18 1.23-1.83 2.41-1.58.95.2 1.31 1.85.38 2.13"/><g filter="url(#l)"><path stroke="#694C5E" stroke-linecap="round" stroke-linejoin="round" stroke-width=".4" d="M26.978 13.32c-.41-2.6-2.84-4.87-5.73-4.24-2.31.5-3.78 2.78-3.28 5.09a3.42 3.42 0 0 0 4.07 2.62 2.74 2.74 0 0 0 2.1-3.26c-.26-1.18-1.23-1.83-2.41-1.58-.95.2-1.31 1.85-.38 2.13"/></g><g filter="url(#m)"><path stroke="#694C5E" stroke-linecap="round" stroke-linejoin="round" stroke-width=".4" d="M4.978 13.32c.41-2.6 2.84-4.87 5.73-4.24 2.31.5 3.78 2.78 3.28 5.09a3.42 3.42 0 0 1-4.07 2.62 2.74 2.74 0 0 1-2.1-3.26c.26-1.18 1.23-1.83 2.41-1.58.95.2 1.31 1.85.38 2.13"/></g><g filter="url(#n)"><path stroke="#CD6256" stroke-linecap="round" stroke-linejoin="round" stroke-width="1.5" d="m12.873 23.088 2.392 2.002m2.719-2.329 2.392 2.002"/></g><path stroke="url(#o)" stroke-linecap="round" stroke-linejoin="round" stroke-width="2" d="m7.854 22.45 2.396 2.005"/><path stroke="url(#p)" stroke-linecap="round" stroke-linejoin="round" stroke-width="2" d="m10.25 24.455 2.768-2.329"/><path stroke="url(#q)" stroke-linecap="round" stroke-linejoin="round" stroke-width="2" d="m13.13 22.051 2.871 2.405"/><path stroke="url(#r)" stroke-linecap="round" stroke-linejoin="round" stroke-width="2" d="M18.87 22.051 16 24.456"/><path stroke="url(#s)" stroke-linecap="round" stroke-linejoin="round" stroke-width="2" d="m18.87 22.051 2.871 2.405"/><path stroke="url(#t)" stroke-linecap="round" stroke-linejoin="round" stroke-width="2" d="m24.161 22.427-2.41 2.028"/><path stroke="url(#u)" stroke-linecap="round" stroke-linejoin="round" stroke-width="2" d="m7.854 22.45 2.396 2.005 2.876-2.406L16 24.455l2.876-2.406 2.875 2.406 2.396-2.005"/><g filter="url(#v)"><path stroke="#694C5E" stroke-linecap="round" stroke-linejoin="round" stroke-width=".5" d="m7.854 22.45 2.396 2.005 2.876-2.406L16 24.455l2.876-2.406 2.875 2.406 2.396-2.005"/></g><defs><linearGradient id="g" x1="25.303" x2="25.303" y1="18.815" y2="15.627" gradientUnits="userSpaceOnUse"><stop stop-color="#633563"/><stop offset=".573" stop-color="#633563" stop-opacity="0"/></linearGradient><linearGradient id="h" x1="27.928" x2="23.803" y1="8.252" y2="14.127" gradientUnits="userSpaceOnUse"><stop stop-color="#5A4B4E"/><stop offset="1" stop-color="#5A4B4E" stop-opacity="0"/></linearGradient><linearGradient id="j" x1="6.654" x2="6.654" y1="18.815" y2="15.627" gradientUnits="userSpaceOnUse"><stop stop-color="#633563"/><stop offset=".573" stop-color="#633563" stop-opacity="0"/></linearGradient><linearGradient id="k" x1="4.029" x2="8.154" y1="8.252" y2="14.127" gradientUnits="userSpaceOnUse"><stop stop-color="#5A4B4E"/><stop offset="1" stop-color="#5A4B4E" stop-opacity="0"/></linearGradient><linearGradient id="o" x1="7.432" x2="11.244" y1="23.818" y2="19.263" gradientUnits="userSpaceOnUse"><stop stop-color="#482641"/><stop offset=".323" stop-color="#57434E"/><stop offset=".438" stop-color="#483637"/></linearGradient><linearGradient id="p" x1="11.745" x2="8.82" y1="24.695" y2="21.126" gradientUnits="userSpaceOnUse"><stop offset=".02" stop-color="#482641"/><stop offset=".323" stop-color="#57434E"/><stop offset=".464" stop-color="#483637"/></linearGradient><linearGradient id="q" x1="12.931" x2="15.94" y1="23.391" y2="19.869" gradientUnits="userSpaceOnUse"><stop offset=".02" stop-color="#482641"/><stop offset=".323" stop-color="#57434E"/><stop offset=".464" stop-color="#483637"/></linearGradient><linearGradient id="r" x1="19.07" x2="16.061" y1="23.391" y2="19.869" gradientUnits="userSpaceOnUse"><stop offset=".02" stop-color="#482641"/><stop offset=".323" stop-color="#57434E"/><stop offset=".464" stop-color="#483637"/></linearGradient><linearGradient id="s" x1="18.671" x2="21.68" y1="23.391" y2="19.869" gradientUnits="userSpaceOnUse"><stop offset=".02" stop-color="#482641"/><stop offset=".323" stop-color="#57434E"/><stop offset=".464" stop-color="#483637"/></linearGradient><linearGradient id="t" x1="24.821" x2="21.812" y1="23.39" y2="19.869" gradientUnits="userSpaceOnUse"><stop offset=".02" stop-color="#482641"/><stop offset=".323" stop-color="#57434E"/><stop offset=".464" stop-color="#483637"/></linearGradient><linearGradient id="u" x1="16.001" x2="16.001" y1="25.56" y2="24.006" gradientUnits="userSpaceOnUse"><stop stop-color="#53265E"/><stop offset="1" stop-color="#53265E" stop-opacity="0"/></linearGradient><filter id="a" width="29.998" height="29.998" x="2.008" y="0" color-interpolation-filters="sRGB" filterUnits="userSpaceOnUse"><feFlood flood-opacity="0" result="BackgroundImageFix"/><feBlend in="SourceGraphic" in2="BackgroundImageFix" result="shape"/><feColorMatrix in="SourceAlpha" result="hardAlpha" values="0 0 0 0 0 0 0 0 0 0 0 0 0 0 0 0 0 0 127 0"/><feOffset dx="2" dy="-2"/><feGaussianBlur stdDeviation="2"/><feComposite in2="hardAlpha" k2="-1" k3="1" operator="arithmetic"/><feColorMatrix values="0 0 0 0 0 0 0 0 0 0 0 0 0 0 0 0 0 0 0.08 0"/><feBlend in2="shape" result="effect1_innerShadow_7320_6152"/></filter><filter id="d" width="12.608" height="11.397" x="15.433" y="7.878" color-interpolation-filters="sRGB" filterUnits="userSpaceOnUse"><feFlood flood-opacity="0" result="BackgroundImageFix"/><feBlend in="SourceGraphic" in2="BackgroundImageFix" result="shape"/><feGaussianBlur result="effect1_foregroundBlur_7320_6152" stdDeviation=".5"/></filter><filter id="e" width="12.608" height="11.397" x="2.541" y="7.878" color-interpolation-filters="sRGB" filterUnits="userSpaceOnUse"><feFlood flood-opacity="0" result="BackgroundImageFix"/><feBlend in="SourceGraphic" in2="BackgroundImageFix" result="shape"/><feGaussianBlur result="effect1_foregroundBlur_7320_6152" stdDeviation=".5"/></filter><filter id="l" width="10.708" height="9.495" x="17.071" y="8.173" color-interpolation-filters="sRGB" filterUnits="userSpaceOnUse"><feFlood flood-opacity="0" result="BackgroundImageFix"/><feBlend in="SourceGraphic" in2="BackgroundImageFix" result="shape"/><feGaussianBlur result="effect1_foregroundBlur_7320_6152" stdDeviation=".3"/></filter><filter id="m" width="10.708" height="9.495" x="4.178" y="8.173" color-interpolation-filters="sRGB" filterUnits="userSpaceOnUse"><feFlood flood-opacity="0" result="BackgroundImageFix"/><feBlend in="SourceGraphic" in2="BackgroundImageFix" result="shape"/><feGaussianBlur result="effect1_foregroundBlur_7320_6152" stdDeviation=".3"/></filter><filter id="n" width="12.004" height="6.828" x="10.623" y="20.511" color-interpolation-filters="sRGB" filterUnits="userSpaceOnUse"><feFlood flood-opacity="0" result="BackgroundImageFix"/><feBlend in="SourceGraphic" in2="BackgroundImageFix" result="shape"/><feGaussianBlur result="effect1_foregroundBlur_7320_6152" stdDeviation=".75"/></filter><filter id="v" width="18.295" height="4.406" x="6.854" y="21.049" color-interpolation-filters="sRGB" filterUnits="userSpaceOnUse"><feFlood flood-opacity="0" result="BackgroundImageFix"/><feBlend in="SourceGraphic" in2="BackgroundImageFix" result="shape"/><feGaussianBlur result="effect1_foregroundBlur_7320_6152" stdDeviation=".375"/></filter><radialGradient id="b" cx="0" cy="0" r="1" gradientTransform="rotate(132.839 10.79 10.067)scale(37.5033)" gradientUnits="userSpaceOnUse"><stop stop-color="#FFF478"/><stop offset=".475" stop-color="#FFB02E"/><stop offset="1" stop-color="#F70A8D"/></radialGradient><radialGradient id="c" cx="0" cy="0" r="1" gradientTransform="rotate(90 1.753 14.253)scale(17.8854)" gradientUnits="userSpaceOnUse"><stop offset=".824" stop-color="#F59639" stop-opacity="0"/><stop offset="1" stop-color="#FF63C4"/></radialGradient><radialGradient id="f" cx="0" cy="0" r="1" gradientTransform="rotate(-119.993 15.044 .628)scale(5.37618 7.49908)" gradientUnits="userSpaceOnUse"><stop offset=".02" stop-color="#482641"/><stop offset="1" stop-color="#483637"/></radialGradient><radialGradient id="i" cx="0" cy="0" r="1" gradientTransform="rotate(-60.007 17.065 -1.617)scale(5.37618 7.49908)" gradientUnits="userSpaceOnUse"><stop offset=".02" stop-color="#482641"/><stop offset="1" stop-color="#483637"/></radialGradient></defs></svg>
